X:1
T:Title
%%score { 1 | ( 2 3 ) }
L:1/8
M:4/4
K:F
V:1 treble nm="Grand Piano"
V:2 bass 
V:3 bass 
V:1
 z4 z2 z[Q:1/4=82] C |[M:2/4] F/F/F F[FG] |[M:9/16] [FA][GB]/-[GB]/[Ac]-[Ac]/[Ac]/[Ac]/ | %3
[M:2/4] [Ac][Bd] [Ac][FA] | [FA] [EG]2 C | FF F[FG] |[M:9/16] [FA][GB]/-[GB]/[Ac]-[Ac]/[Ac]/[Ac]/ | %7
[M:2/4] [Bd]/c/[GB]/A/ [EG][Ec] | [FA] F2 C | F>[FG] [FA][EG] | [FA][GB] [Ac][Ac]/[Ac]/ | %11
 [GB]>[FA] [GB][Gd] | [Bd] [Ac]2 [Ac] | [Bd][Bd] [GB][Bd] | %14
[M:9/16] [Ac][Ac]/-[Ac]/[FA]-[FA]/[Ac]/[Ac]/ |[M:2/4] [Ac]>[Ac] [FA]F | [FA] .[EG]3 | z4 | z2 z G | %19
 A/A/A AB | c4 | [Fd]2 [Ff]2 | [CAc]2 [CFA]2 | [CFA]/[B,EG]/[A,F] [CFA][B,EG] |[M:3/8] [A,F]3 |] %25
V:2
 z4 z2 z C, |[M:2/4] F,/F,/F, F,F, |[M:9/16] F,F,/-F,/F,-F,/F,/F,/ |[M:2/4] F,F, F,F, | C, C,2 C, | %5
 F,F, F,F, |[M:9/16] F,F,/-F,/F,-F,/F,/F,/ |[M:2/4] z/ .AF/ C,C, | F, F,2 C, | F,>F, F,C, | %10
 F,F, F,F,/F,/ | C,>C, C,E, | F, F,2 F, | B,B, B,,B,, |[M:9/16] F,F,/-F,/F,-F,/F,/F,/ | %15
[M:2/4] F,>F, C,A,, | C, C,2[K:treble] C | F/F/F FG | A3 C | F/F/F FG | A4 | [B,,B,]2 [D,B,]2 | %22
 F,2 F,2 | C,/C,/C, C,C, |[M:3/8] F,3 |] %25
V:3
 x8 |[M:2/4] x4 |[M:9/16] x9/2 |[M:2/4] x4 | x4 | x4 |[M:9/16] x9/2 |[M:2/4] B,,B,, z2 | x4 | x4 | %10
 x4 | x4 | x4 | x4 |[M:9/16] x9/2 |[M:2/4] x4 | x3[K:treble] x | x4 | x4 | x4 | x4 | x4 | x4 | x4 | %24
[M:3/8] x3 |] %25

